X:70
T:De'el Stick the Minister. VWMLa.070
%%VWML:Anon2-3049-p41-0
F:http://www.vwml.org/record/Anon2/3049/p41
S:Anon. MS, late 18thC, Vaughan Williams Mem. Library
O:England;Yorkshire
Z:vmp/efdss.Simon Wilson. Reviewed PJH 2008.
M:C
L:1/8
Q:2/4=75
K:G
E|A/A/A AcB2EB|c2BA BGGB|\
A/A/A AcB2GB|(A/B/c) BA GEE:|
|:z|e>fec d>edB|e>fec (d/c/B/A/) GB|\
e>fec d>edB|(A/B/c) BA GEE:|
